X:1
T:Ego sum panis vivus - Costantini
T:#
%%score [ 1 2 3 4 ]
L:1/8
Q:1/4=200
M:none
K:C
V:1 treble nm="Soprano" snm="S"
V:2 treble nm="Alto" snm="A"
V:3 treble-8 nm="Tenor" snm="T"
V:4 bass nm="Bass" snm="B"
V:1
"^Ego sum panis vivus""^Alessandro Costantini\n(c.1581-1657)" A8 F4 G4 | A8 D4 (A2 B2 | %2
w: E- go sum|pa- nis vi\- *|
 c2 B2 A8 ^G4) | A8 (A2 B2 c2 B2 | A4 G2 F2 E4) A4- | A4 z4 z8 |[M:4/2] z8 z4 A4- | A4 F2 G2 A8 | %8
w: |vus, vi\- * * *|* * * * vus,||e\-|* go sum pa-|
 D4 (A8 G2 F2 | E8) D8 | z16 | z8 z4 A4 | B8 c8 | d8 e4 E4- | E4 E2 c2 (c2 B2 A2 G2 | F8 E8) | %16
w: nis vi\- * *|* vus,||qui|de coe-|lo de- scen\-|* di, de- scen\- * * *||
 D4 z4 z8 | z16 | A4 A4 c4 c4 | B6 c2 d8 | G4 A4 B8 | A8 A4 A4 | c4 c4 B6 c2 | d4 d8 ^c4 | d12 d4 | %25
w: di:||si quis man- du-|ca- ve- rit|ex hoc pa-|ne, si quis|man- du- ca- ve-|rit ex hoc|pa- ne,|
[M:3/1][Q:1/4=400] c16 B8 | A12 G4 G8 | G8 c8 B8 | A12 A4 ^G8 | A8 c8 B8 | A12 A4 A8 |[M:4/2] A16 | %32
w: vi- vet|in ae- ter-|num, vi- vet|in ae- ter-|num, vi- vet|in ae- ter-|num,|
 z4 c4 c8 | B4 G4 B4 A4 | (A4 ^G4) A8- | A16 | z4 c4 c8 | B4 G4 B4 c4 | d8 B8 | c6 c2 B4 B4 | %40
w: et pa-|nis quem e- go|da\- * bo,||et pa-|nis quem e- go|da- bo,|ca- ro me- a|
 A4 A4 G6 F2 | E8 ^F8 | z4 G4 =F4 F4 | E8 E4 c4 | B4 G4 A4 (B4- | B2 A2) A8 ^G4 | A4 c4 B6 G2 | %47
w: est pro mun- di|vi- ta,|pro mun- di|vi- ta. Al-|le- lu- ia, al\-|* * le- lu-|ia, al- le- lu-|
 A4 B4 A6 A2 | G8 z4 (D2 E2) | (F2 G2 A4) A4 ^G4 | A4 A4 =G4 E4 | F4 G4 A4 (A4- | A4 ^G4) A8 | %53
w: ia, al- le- lu-|ia, al\- *|* * * le- lu-|ia, al- le- lu-|ia, al- le- lu\-|* * ia,|
 z4[Q:1/4=198] A4[Q:1/4=194] G4[Q:1/4=191] E4 | %54
w: al- le- lu-|
[Q:1/4=188] (F2[Q:1/4=186] G2[Q:1/4=184] A4)[Q:1/4=181] E4[Q:1/4=177] F4 | %55
w: ia, * * al- le-|
[Q:1/4=173] E8[Q:1/4=170] ^F16 |] %56
w: lu- ia.|
V:2
 z16 | z8 D8 | C4 D4 E8 | (A,4 D2 E2 F4 E4- | E2 D2 D8 ^C4 | D2 E2 F4 E4 D2 C2) | %6
w: |E-|go sum pa-|nis vi\- * * *|||
[M:4/2] B,8 C4 A,4- | A,2 C2 D4 E8 | F4 (F8 E2 D2 | ^C2 D4 C2) D4 A,4- | A,4 B,4 C8 | D4 E4 E8- | %12
w: * vus, e\-|* go sum pa-|nis vi\- * *|* * * vus, qui|* de coe-|lo de- scen\-|
 E8 E4 E4 | G4 (A8 ^G4) | A4 E8 (F4- | F2 E2 D8 ^C4) | D8 z8 | z8 D4 D4 | F4 F4 E6 F2 | G8 F8 | %20
w: * di, qui|de coe\- *|lo de- scen\-||di:|si quis|man- du- ca- ve-|rit ex|
 E8 (D4 G4- | G4) F4 C6 D2 | E2 F2 G6 G2 G4 | A4 F4 E8 | ^F16 |[M:3/1] A16 G8 | F12 E4 D8 | %27
w: hoc pa\- *|* ne, si quis|man- du- ca- ve- rit|ex hoc pa-|ne,|vi- vet|in ae- ter-|
 E8 E8 D8 | C12 D4 B,8 | C8 A8 G8 | F12 F4 E8 |[M:4/2] ^F4 =F4 F8 | E4 C4 E6 F2 | G8 G,4 C4 | %34
w: num, vi- vet|in ae- ter-|num, vi- vet|in ae- ter-|num, et pa-|nis quem e- go|da- bo, quem|
 F4 (E2 D2) C4 C4 | z4 F4 F8 | E4 C4 E6 F2 | G8 G4 E4 | F4 F4 E8 | E4 E6 E2 E3 E | %40
w: e- go * da- bo,|et pa-|nis quem e- go|da- bo, quem|e- go da-|bo, ca- ro me- a|
 C4 D4 E4 D2 (D2- | D2 ^CB, C4) D8 | z4 E4 D6 C2 | B,8 C4 E4 | G6 G2 F4 E4- | E4 A,4 B,8 | %46
w: est pro mun- di vi\-|* * * * ta,|pro mun- di|vi- ta. Al-|le- lu- ia, al\-|* le- lu-|
 (C2 D2 E2 F2 G4) G,4 | (D8 E4) D4 | B,4 E4 D4 B,4 | C6 D2 (E6 D2 | C4) A,4 B,4 E4 | D4 B,4 C4 D4 | %52
w: ia, * * * * al-|le\- * lu-|ia, al- le- lu-|ia, al- le\- *|* lu- ia, al-|le- lu- ia, al-|
 E6 E2 A,4 F4 | E4 C4 D4 E4 | (A2 G2 F2 ED ^C4) (D4- | D4 ^C4) D16 |] %56
w: le- lu- ia, al-|le- lu- ia, al-|le\- * * * * * lu\-|* * ia.|
V:3
 z16 | z16 | z16 | z8 A8 | F4 G4 A8 | D4 (A2 B2 c2 B2 A4-) |[M:4/2][K:treble-8] (A4 ^G4 A4 F2 =G2 | %7
w: |||E-|go sum pa-|nis vi\- * * * *||
 A8) E4 A4 | A4 A4 F4 G4 | A8 D8 | ^F8 G4 A4- | A4 B4 (c2 B2) A4- | (A4 ^G4) A4 c4 | B4 (A4 B8) | %14
w: * vus, e-|go sum pa- nis|vi- vus,|qui de coe\-|* lo de\- * scen\-|* * di, qui|de coe\- *|
 c4 c4 A8- | A8 A8 | z8 A4 A4 | c4 c4 B6 c2 | d8 c4 c4 | d8 d2 A4 A2 | c4 c4 B6 c2 | d8 c4 A4 | %22
w: lo de- scen\-|* di:|si quis|man- du- ca- ve-|rit ex hoc|pa- ne, si quis|man- du- ca- ve-|rit, si quis|
 e4 e4 d6 e2 | f4 A6 A2 A4 | A16 |[M:3/1] z8 e8 e8 | c12 c4 B8 | c8 c8 G8 | A12 D4 E8 | A8 e8 e8 | %30
w: man- du- ca- ve-|rit ex hoc pa-|ne,|vi- vet|in ae- ter-|num, vi- vet|in ae- ter-|num, vi- vet|
 c12 d4 ^c8 |[M:4/2][K:treble-8] d16 | z4 A4 A8 | G4 E4 G4 A4 | B8 A8 | z4 d4 d8 | c4 A4 c6 d2 | %37
w: in ae- ter-|num,|et pa-|nis quem e- go|da- bo,|et pa-|nis quem e- go|
 e8 e4 z4 | z4 A6 A2 ^G3 G | A8 E8 | F8 G8 | A8 D4 A4 | c4 G4 (B4 A4- | A2 ^G^F G4) A8 | %44
w: da- bo,|ca- ro me- a|est pro|mun- di|vi- ta, pro|mun- di vi\- *|* * * * ta.|
 z4 e4 d4 B4 | c4 d4 e6 e2 | A4 A4 G6 E2 | ^F4 G4 G4 F4 | G4 c4 B4 G4 | A6 B2 c4 B4 | A4 F4 G4 A4 | %51
w: Al- le- lu-|ia, al- le- lu-|ia, al- le- lu-|ia, al- le- lu-|ia, al- le- lu-|ia, al- le- lu-|ia, al- le- lu-|
 D4 (G6 F2) F4 | E8 (F2 G2 A2 B2 | c2 d2 e4) z4 A4- | A4 A4 A8- | A8 A16 |] %56
w: ia, al\- * le-|lu- ia, * * *|* * * al\-|* le- lu\-|* ia.|
V:4
 z16 | z16 | z16 | z16 | z16 | D,8 C,4 D,4 |[M:4/2] E,8 A,,4 (D,2 E,2 | F,2 E,2 D,8 ^C,4) | %8
w: |||||E- go sum|pa- nis vi\- *||
 D,8 z8 | z16 | D,8 E,4 F,4- | F,4 G,4 A,8 | E,8 A,,4 A,4 | (G,4 F,4 E,8) | %14
w: vus,||qui de coe\-|* lo de-|scen- di, de-|scen\- * *|
 A,,4 A,4 (A,2 G,2 F,2 E,2 | D,8 A,,8) | D,2 D,4 D,2 F,4 F,4 | E,6 F,2 G,8 | D,4 D,4 (A,8 | %19
w: di, de- scen\- * * *||di: si quis man- du-|ca- ve- rit|ex hoc pa\-|
 G,8) D,8 | z16 | D,4 D,4 F,4 F,4 | E,6 F,2 G,8 | F,4 D,4 A,,8 | D,16 |[M:3/1] A,16 E,8 | %26
w: * ne,||si quis man- du-|ca- ve- rit|ex hoc pa-|ne,|vi- vet|
 F,12 C,4 G,8 | C,16 z8 | z16 z8 | z8 A,8 E,8 | F,12 D,4 A,8 |[M:4/2] D,4 D,4 D,8 | %32
w: in ae- ter-|num,||vi- vet|in ae- ter-|num, et pa-|
 C,4 A,,4 C,6 D,2 | E,8 E,4 C,4 | D,4 E,4 (F,8 | D,16) | A,,4 A,4 A,8 | G,4 E,4 G,4 A,4 | %38
w: nis quem e- go|da- bo, quem|e- go da\-||bo, et pa-|nis quem e- go|
 (D,8 E,8) | A,,4 A,6 A,2 ^G,3 G, | A,4 z4 z8 | z16 | C,8 D,4 D,4 | E,8 A,,4 A,4 | %44
w: da\- *|bo, ca- ro me- a|est||pro mun- di|vi- ta. Al-|
 G,4 E,4 F,4 G,4 | A,4 F,4 E,8 | z8 z4 E,4 | D,4 B,,4 C,4 D,4 | (E,8 G,8) | (F,8 E,8) | %50
w: le- lu- ia, al-|le- lu- ia,|al-|le- lu- ia, al-|le\- *|lu\- *|
 A,,4 z4 z8 | z16 | z8 z4 D,4 | C,4 A,,4 B,,4 C,4 | (D,2 E,2 F,2 G,2 A,4 D,4) | A,,8 D,16 |] %56
w: ia,||al-|le- lu- ia, al-|le\- * * * * *|lu- ia.|

